devices/16/media-optical.svg

<?xml version="1.0" encoding="UTF-8" standalone="no"?>
<svg
   xmlns:dc="http://purl.org/dc/elements/1.1/"
   xmlns:cc="http://creativecommons.org/ns#"
   xmlns:rdf="http://www.w3.org/1999/02/22-rdf-syntax-ns#"
   xmlns:svg="http://www.w3.org/2000/svg"
   xmlns="http://www.w3.org/2000/svg"
   xmlns:xlink="http://www.w3.org/1999/xlink"
   version="1.1"
   width="16"
   height="16"
   id="svg4087">
  <defs
     id="defs4089">
    <linearGradient
       x1="71.204407"
       y1="6.2375584"
       x2="71.204407"
       y2="44.340794"
       id="linearGradient3194"
       xlink:href="#linearGradient4011"
       gradientUnits="userSpaceOnUse"
       gradientTransform="matrix(0.35135135,0,0,0.35135138,-17.203666,-0.9093005)" />
    <linearGradient
       id="linearGradient4011">
      <stop
         id="stop4013"
         style="stop-color:#ffffff;stop-opacity:1"
         offset="0" />
      <stop
         id="stop4015"
         style="stop-color:#ffffff;stop-opacity:0.23529412"
         offset="0.507761" />
      <stop
         id="stop4017"
         style="stop-color:#ffffff;stop-opacity:0.15686275"
         offset="0.83456558" />
      <stop
         id="stop4019"
         style="stop-color:#ffffff;stop-opacity:0.39215687"
         offset="1" />
    </linearGradient>
    <linearGradient
       x1="18.775953"
       y1="4.0378027"
       x2="18.203465"
       y2="45.962208"
       id="linearGradient3054"
       xlink:href="#linearGradient6036"
       gradientUnits="userSpaceOnUse"
       gradientTransform="matrix(0.1767888,0,0,-0.1767887,3.6957217,12.41972)" />
    <linearGradient
       id="linearGradient6036">
      <stop
         id="stop6038"
         style="stop-color:#ffffff;stop-opacity:1"
         offset="0" />
      <stop
         id="stop6040"
         style="stop-color:#ffffff;stop-opacity:0"
         offset="1" />
    </linearGradient>
    <linearGradient
       x1="20.580074"
       y1="10.774516"
       x2="24.27351"
       y2="9.8622112"
       id="linearGradient3301"
       xlink:href="#linearGradient3487"
       gradientUnits="userSpaceOnUse"
       spreadMethod="reflect" />
    <linearGradient
       id="linearGradient3487">
      <stop
         id="stop3489"
         style="stop-color:#e6cde2;stop-opacity:1"
         offset="0" />
      <stop
         id="stop3491"
         style="stop-color:#e6cde2;stop-opacity:0"
         offset="1" />
    </linearGradient>
    <linearGradient
       x1="17.494959"
       y1="11.200086"
       x2="21.047453"
       y2="9.7956104"
       id="linearGradient3303"
       xlink:href="#linearGradient3495"
       gradientUnits="userSpaceOnUse"
       spreadMethod="reflect" />
    <linearGradient
       id="linearGradient3495">
      <stop
         id="stop3497"
         style="stop-color:#c1cbe4;stop-opacity:1"
         offset="0" />
      <stop
         id="stop3499"
         style="stop-color:#c1cbe4;stop-opacity:0"
         offset="1" />
    </linearGradient>
    <linearGradient
       x1="14.084608"
       y1="13.045606"
       x2="16.994024"
       y2="10.732353"
       id="linearGradient3305"
       xlink:href="#linearGradient3503"
       gradientUnits="userSpaceOnUse"
       spreadMethod="reflect" />
    <linearGradient
       id="linearGradient3503">
      <stop
         id="stop3505"
         style="stop-color:#c4ebdd;stop-opacity:1"
         offset="0" />
      <stop
         id="stop3507"
         style="stop-color:#c4ebdd;stop-opacity:0"
         offset="1" />
    </linearGradient>
    <linearGradient
       x1="12.371647"
       y1="16.188046"
       x2="14.609327"
       y2="13.461712"
       id="linearGradient3307"
       xlink:href="#linearGradient3511"
       gradientUnits="userSpaceOnUse"
       spreadMethod="reflect" />
    <linearGradient
       id="linearGradient3511">
      <stop
         id="stop3513"
         style="stop-color:#ebeec7;stop-opacity:1"
         offset="0" />
      <stop
         id="stop3515"
         style="stop-color:#ebeec7;stop-opacity:0"
         offset="1" />
    </linearGradient>
    <linearGradient
       x1="10.609375"
       y1="17.886322"
       x2="9.7297754"
       y2="20.612656"
       id="linearGradient3309"
       xlink:href="#linearGradient3519"
       gradientUnits="userSpaceOnUse"
       spreadMethod="reflect" />
    <linearGradient
       id="linearGradient3519">
      <stop
         id="stop3521"
         style="stop-color:#fcd9cd;stop-opacity:1"
         offset="0" />
      <stop
         id="stop3523"
         style="stop-color:#fcd9cd;stop-opacity:0"
         offset="1" />
    </linearGradient>
    <linearGradient
       x1="20.580074"
       y1="10.774516"
       x2="24.27351"
       y2="9.8622112"
       id="linearGradient3312"
       xlink:href="#linearGradient3487"
       gradientUnits="userSpaceOnUse"
       spreadMethod="reflect" />
    <linearGradient
       x1="17.494959"
       y1="11.200086"
       x2="21.047453"
       y2="9.7956104"
       id="linearGradient3314"
       xlink:href="#linearGradient3495"
       gradientUnits="userSpaceOnUse"
       spreadMethod="reflect" />
    <linearGradient
       x1="14.084608"
       y1="13.045606"
       x2="16.994024"
       y2="10.732353"
       id="linearGradient3316"
       xlink:href="#linearGradient3503"
       gradientUnits="userSpaceOnUse"
       spreadMethod="reflect" />
    <linearGradient
       x1="12.371647"
       y1="16.188046"
       x2="14.609327"
       y2="13.461712"
       id="linearGradient3318"
       xlink:href="#linearGradient3511"
       gradientUnits="userSpaceOnUse"
       spreadMethod="reflect" />
    <linearGradient
       x1="10.609375"
       y1="17.886322"
       x2="9.7297754"
       y2="20.612656"
       id="linearGradient3320"
       xlink:href="#linearGradient3519"
       gradientUnits="userSpaceOnUse"
       spreadMethod="reflect" />
    <linearGradient
       x1="12.2744"
       y1="32.4165"
       x2="35.391201"
       y2="14.2033"
       id="linearGradient3263"
       gradientUnits="userSpaceOnUse">
      <stop
         id="stop3265"
         style="stop-color:#dedbde;stop-opacity:1"
         offset="0" />
      <stop
         id="stop3267"
         style="stop-color:#e6e6e6;stop-opacity:1"
         offset="0.5" />
      <stop
         id="stop3269"
         style="stop-color:#d2d2d2;stop-opacity:1"
         offset="1" />
    </linearGradient>
    <linearGradient
       id="linearGradient3772">
      <stop
         id="stop3774"
         style="stop-color:#b4b4b4;stop-opacity:1"
         offset="0" />
      <stop
         id="stop3776"
         style="stop-color:#969696;stop-opacity:1"
         offset="1" />
    </linearGradient>
    <linearGradient
       x1="12.2744"
       y1="32.4165"
       x2="35.391201"
       y2="14.2033"
       id="linearGradient4083"
       xlink:href="#linearGradient3263"
       gradientUnits="userSpaceOnUse"
       gradientTransform="matrix(0,0.4285752,-0.4285752,0,17.900088,-2.2858061)" />
    <linearGradient
       x1="-21.915663"
       y1="3"
       x2="-21.915663"
       y2="45.032898"
       id="linearGradient4085"
       xlink:href="#linearGradient3772"
       gradientUnits="userSpaceOnUse"
       gradientTransform="matrix(0.3658536,0,0,0.3658536,17.609167,-0.78048667)" />
  </defs>
  <metadata
     id="metadata4092">
    <rdf:RDF>
      <cc:Work
         rdf:about="">
        <dc:format>image/svg+xml</dc:format>
        <dc:type
           rdf:resource="http://purl.org/dc/dcmitype/StillImage" />
        <dc:title />
      </cc:Work>
    </rdf:RDF>
  </metadata>
  <g
     id="layer1">
    <path
       d="m 15.5,8.0000004 c 0,-4.1571805 -3.34282,-7.49999949 -7.5000007,-7.49999949 -4.1571809,0 -7.49999939,3.34281929 -7.49999939,7.49999949 C 0.49999911,12.15718 3.8428187,15.5 7.9999993,15.5 12.157179,15.499999 15.5,12.15718 15.5,8.0000004 z m -5,0 C 10.5,9.2939445 9.5060913,10.5 7.9999993,10.5 6.4939073,10.5 5.5,9.1934915 5.5,8.0000004 c 0,-1.2270178 1.0349902,-2.5 2.4999993,-2.5 1.4985143,0 2.5000007,1.2056213 2.5000007,2.5 z"
       id="path2781"
       style="fill:url(#linearGradient4083);fill-rule:nonzero;stroke:url(#linearGradient4085);stroke-width:0.99999982;stroke-miterlimit:4;stroke-opacity:1" />
    <g
       transform="matrix(0.3357395,0,0,0.3357395,-0.1714995,-0.39196467)"
       id="g3527">
      <path
         d="M 15.856928,5.7307748 20.625,16.34375 C 21.660403,15.885186 22.795334,15.625 24,15.625 c 0.03206,0 0.06178,-3.6e-4 0.09375,0 L 24.10801,4.0047512 c -2.94215,-0.070687 -5.543041,0.6572865 -8.251083,1.7260236 l 10e-7,0 z"
         transform="matrix(0.9996011,0.02824295,-0.02824295,0.9996011,0.6924114,-0.6708346)"
         id="path3296"
         style="opacity:0.8;fill:url(#linearGradient3312);fill-opacity:1;fill-rule:nonzero;stroke:none" />
      <path
         d="m 12.121471,7.9060109 6.931026,9.3601041 c 0.913109,-0.669755 1.965938,-1.167064 3.142629,-1.425169 0.03132,-0.0069 0.06026,-0.01359 0.09157,-0.02009 L 19.857174,4.426276 c -2.888973,0.5613244 -5.31953,1.8556038 -7.735703,3.4797349 l 0,0 z"
         id="path3308"
         style="opacity:0.8;fill:url(#linearGradient3314);fill-opacity:1;fill-rule:nonzero;stroke:none" />
      <path
         d="m 8.2523933,11.646535 9.2137237,7.155818 c 0.70865,-0.883264 1.596891,-1.636119 2.666685,-2.18998 0.02847,-0.01474 0.05469,-0.02872 0.08325,-0.0431 L 14.86585,6.2506132 C 12.220599,7.5405321 10.165881,9.452393 8.2523933,11.646535 z"
         id="path3310"
         style="opacity:0.8;fill:url(#linearGradient3316);fill-opacity:1;fill-rule:nonzero;stroke:none" />
      <path
         d="m 5.6328855,16.073974 c 7.1748065,2.242248 7.8502625,7.031463 12.7767855,1.754127 L 10.499985,9.1321388 C 8.2787249,11.062747 6.9132871,13.459349 5.6328855,16.073974 z"
         id="path3312"
         style="opacity:0.8;fill:url(#linearGradient3318);fill-opacity:1;fill-rule:nonzero;stroke:none" />
      <path
         d="M 7.155289,13.193173 C 5.9722117,14.945185 5.2475768,16.829547 4.6301929,18.837116 L 15.96875,21.8125 C 16.184264,21.049497 16.486796,20.297733 16.9375,19.59375 16.95479,19.56675 16.98246,19.52673 17,19.5 L 7.155289,13.193173 z"
         id="path3314"
         style="opacity:0.8;fill:url(#linearGradient3320);fill-opacity:1;fill-rule:nonzero;stroke:none" />
    </g>
    <g
       transform="matrix(-0.3507965,0,0,-0.3507965,16.408914,16.448702)"
       id="g3297">
      <path
         d="M 15.856928,5.7307748 20.625,16.34375 C 21.660403,15.885186 22.795334,15.625 24,15.625 c 0.03206,0 0.06178,-3.6e-4 0.09375,0 L 24.10801,4.0047512 c -2.94215,-0.070687 -5.543041,0.6572865 -8.251083,1.7260236 l 10e-7,0 z"
         transform="matrix(0.9996011,0.02824295,-0.02824295,0.9996011,0.6924114,-0.6708346)"
         id="path3299"
         style="opacity:0.8;fill:url(#linearGradient3301);fill-opacity:1;fill-rule:nonzero;stroke:none" />
      <path
         d="m 12.121471,7.9060109 6.931026,9.3601041 c 0.913109,-0.669755 1.965938,-1.167064 3.142629,-1.425169 0.03132,-0.0069 0.06026,-0.01359 0.09157,-0.02009 L 19.857174,4.426276 c -2.888973,0.5613244 -5.31953,1.8556038 -7.735703,3.4797349 l 0,0 z"
         id="path3301"
         style="opacity:0.8;fill:url(#linearGradient3303);fill-opacity:1;fill-rule:nonzero;stroke:none" />
      <path
         d="m 8.2523933,11.646535 9.2137237,7.155818 c 0.70865,-0.883264 1.596891,-1.636119 2.666685,-2.18998 0.02847,-0.01474 0.05469,-0.02872 0.08325,-0.0431 L 14.86585,6.2506132 C 12.220599,7.5405321 10.165881,9.452393 8.2523933,11.646535 z"
         id="path3303"
         style="opacity:0.8;fill:url(#linearGradient3305);fill-opacity:1;fill-rule:nonzero;stroke:none" />
      <path
         d="m 5.6328855,16.073974 c 7.1748065,2.242248 7.8502625,7.031463 12.7767855,1.754127 L 10.499985,9.1321388 C 8.2787249,11.062747 6.9132871,13.459349 5.6328855,16.073974 z"
         id="path3305"
         style="opacity:0.8;fill:url(#linearGradient3307);fill-opacity:1;fill-rule:nonzero;stroke:none" />
      <path
         d="M 7.155289,13.193173 C 5.9722117,14.945185 5.2475768,16.829547 4.6301929,18.837116 L 15.96875,21.8125 C 16.184264,21.049497 16.486796,20.297733 16.9375,19.59375 16.95479,19.56675 16.98246,19.52673 17,19.5 L 7.155289,13.193173 z"
         id="path3307"
         style="opacity:0.8;fill:url(#linearGradient3309);fill-opacity:1;fill-rule:nonzero;stroke:none" />
    </g>
    <path
       d="M 7.9999996,11.5 C 6.0599997,11.5 4.5,9.9400008 4.5,8.000001 4.5,6.0600013 6.0599997,4.5000015 7.9999996,4.5000015 9.9399998,4.5000015 11.5,6.0600013 11.5,8.000001 11.5,9.9400008 9.9399998,11.5 7.9999996,11.5 l 0,0 0,0 0,0 z"
       id="path3281"
       style="opacity:0.4;fill:none;stroke:url(#linearGradient3054);stroke-width:0.99999982;stroke-miterlimit:4;stroke-opacity:1" />
    <path
       d="M 14.5,7.9997706 C 14.5,11.589738 11.589638,14.5 8.0000825,14.5 4.4102002,14.5 1.5,11.589704 1.5,7.9997706 c 0,-3.5898007 2.9102002,-6.49977 6.5000825,-6.49977 3.5895555,0 6.4999175,2.9099693 6.4999175,6.49977 l 0,0 z"
       id="path8655"
       style="opacity:0.55;color:#000000;fill:none;stroke:url(#linearGradient3194);stroke-width:1;stroke-linecap:round;stroke-linejoin:round;stroke-miterlimit:4;stroke-opacity:1;stroke-dasharray:none;stroke-dashoffset:0;marker:none;visibility:visible;display:inline;overflow:visible;enable-background:accumulate" />
  </g>
</svg>

<svg xmlns="http://www.w3.org/2000/svg" xmlns:xlink="http://www.w3.org/1999/xlink" viewBox="0 0 16 16"><defs><linearGradient x1="71.204" y1="6.238" x2="71.204" y2="44.341" id="w" xlink:href="#a" gradientUnits="userSpaceOnUse" gradientTransform="translate(-17.204 -.91) scale(.35135)"/><linearGradient id="a"><stop offset="0" stop-color="#fff"/><stop offset=".508" stop-color="#fff" stop-opacity=".235"/><stop offset=".835" stop-color="#fff" stop-opacity=".157"/><stop offset="1" stop-color="#fff" stop-opacity=".392"/></linearGradient><linearGradient x1="18.776" y1="4.038" x2="18.203" y2="45.962" id="v" xlink:href="#b" gradientUnits="userSpaceOnUse" gradientTransform="matrix(.1768 0 0 -.1768 3.696 12.42)"/><linearGradient id="b"><stop offset="0" stop-color="#fff"/><stop offset="1" stop-color="#fff" stop-opacity="0"/></linearGradient><linearGradient x1="20.58" y1="10.775" x2="24.274" y2="9.862" id="q" xlink:href="#c" gradientUnits="userSpaceOnUse" spreadMethod="reflect"/><linearGradient id="c"><stop offset="0" stop-color="#e6cde2"/><stop offset="1" stop-color="#e6cde2" stop-opacity="0"/></linearGradient><linearGradient x1="17.495" y1="11.2" x2="21.047" y2="9.796" id="r" xlink:href="#d" gradientUnits="userSpaceOnUse" spreadMethod="reflect"/><linearGradient id="d"><stop offset="0" stop-color="#c1cbe4"/><stop offset="1" stop-color="#c1cbe4" stop-opacity="0"/></linearGradient><linearGradient x1="14.085" y1="13.046" x2="16.994" y2="10.732" id="s" xlink:href="#e" gradientUnits="userSpaceOnUse" spreadMethod="reflect"/><linearGradient id="e"><stop offset="0" stop-color="#c4ebdd"/><stop offset="1" stop-color="#c4ebdd" stop-opacity="0"/></linearGradient><linearGradient x1="12.372" y1="16.188" x2="14.609" y2="13.462" id="t" xlink:href="#f" gradientUnits="userSpaceOnUse" spreadMethod="reflect"/><linearGradient id="f"><stop offset="0" stop-color="#ebeec7"/><stop offset="1" stop-color="#ebeec7" stop-opacity="0"/></linearGradient><linearGradient x1="10.609" y1="17.886" x2="9.73" y2="20.613" id="u" xlink:href="#g" gradientUnits="userSpaceOnUse" spreadMethod="reflect"/><linearGradient id="g"><stop offset="0" stop-color="#fcd9cd"/><stop offset="1" stop-color="#fcd9cd" stop-opacity="0"/></linearGradient><linearGradient x1="20.58" y1="10.775" x2="24.274" y2="9.862" id="l" xlink:href="#c" gradientUnits="userSpaceOnUse" spreadMethod="reflect"/><linearGradient x1="17.495" y1="11.2" x2="21.047" y2="9.796" id="m" xlink:href="#d" gradientUnits="userSpaceOnUse" spreadMethod="reflect"/><linearGradient x1="14.085" y1="13.046" x2="16.994" y2="10.732" id="n" xlink:href="#e" gradientUnits="userSpaceOnUse" spreadMethod="reflect"/><linearGradient x1="12.372" y1="16.188" x2="14.609" y2="13.462" id="o" xlink:href="#f" gradientUnits="userSpaceOnUse" spreadMethod="reflect"/><linearGradient x1="10.609" y1="17.886" x2="9.73" y2="20.613" id="p" xlink:href="#g" gradientUnits="userSpaceOnUse" spreadMethod="reflect"/><linearGradient x1="12.274" y1="32.416" x2="35.391" y2="14.203" id="h" gradientUnits="userSpaceOnUse"><stop offset="0" stop-color="#dedbde"/><stop offset=".5" stop-color="#e6e6e6"/><stop offset="1" stop-color="#d2d2d2"/></linearGradient><linearGradient id="i"><stop offset="0" stop-color="#b4b4b4"/><stop offset="1" stop-color="#969696"/></linearGradient><linearGradient x1="12.274" y1="32.416" x2="35.391" y2="14.203" id="j" xlink:href="#h" gradientUnits="userSpaceOnUse" gradientTransform="rotate(90 10.093 7.807) scale(.42858)"/><linearGradient x1="-21.916" y1="3" x2="-21.916" y2="45.033" id="k" xlink:href="#i" gradientUnits="userSpaceOnUse" gradientTransform="translate(17.61 -.78) scale(.36585)"/></defs><path d="M15.5 8A7.48 7.48 0 0 0 8 .5 7.48 7.48 0 0 0 .5 8 7.48 7.48 0 0 0 8 15.5 7.48 7.48 0 0 0 15.5 8zm-5 0c0 1.294-.994 2.5-2.5 2.5S5.5 9.193 5.5 8c0-1.227 1.035-2.5 2.5-2.5 1.5 0 2.5 1.206 2.5 2.5z" fill="url(#j)" stroke="url(#k)"/><path d="M15.857 5.73l4.768 10.614a8.293 8.293 0 0 1 3.375-.72h.094l.014-11.62c-2.942-.07-5.543.658-8.25 1.727z" transform="rotate(1.62 21.88 1.85) scale(.33574)" opacity=".8" fill="url(#l)"/><path d="M12.12 7.906l6.932 9.36a8.293 8.293 0 0 1 3.143-1.425l.092-.02-2.43-11.392c-2.89.562-5.32 1.856-7.736 3.48z" opacity=".8" fill="url(#m)" transform="translate(-.17 -.392) scale(.33574)"/><path d="M8.252 11.647l9.214 7.155a8.293 8.293 0 0 1 2.667-2.19l.083-.043-5.35-10.32c-2.645 1.29-4.7 3.2-6.614 5.395z" opacity=".8" fill="url(#n)" transform="translate(-.17 -.392) scale(.33574)"/><path d="M5.633 16.074c7.175 2.242 7.85 7.03 12.777 1.754L10.5 9.132c-2.22 1.93-3.587 4.327-4.867 6.942z" opacity=".8" fill="url(#o)" transform="translate(-.17 -.392) scale(.33574)"/><path d="M7.155 13.193c-1.183 1.752-1.907 3.637-2.525 5.644l11.34 2.976a8.19 8.19 0 0 1 .967-2.22L17 19.5l-9.845-6.307z" opacity=".8" fill="url(#p)" transform="translate(-.17 -.392) scale(.33574)"/><path d="M15.857 5.73l4.768 10.614a8.293 8.293 0 0 1 3.375-.72h.094l.014-11.62c-2.942-.07-5.543.658-8.25 1.727z" transform="rotate(-178.382 8.2 8.228) scale(.3508)" opacity=".8" fill="url(#q)"/><path d="M12.12 7.906l6.932 9.36a8.293 8.293 0 0 1 3.143-1.425l.092-.02-2.43-11.392c-2.89.562-5.32 1.856-7.736 3.48z" opacity=".8" fill="url(#r)" transform="rotate(180 8.205 8.225) scale(.3508)"/><path d="M8.252 11.647l9.214 7.155a8.293 8.293 0 0 1 2.667-2.19l.083-.043-5.35-10.32c-2.645 1.29-4.7 3.2-6.614 5.395z" opacity=".8" fill="url(#s)" transform="rotate(180 8.205 8.225) scale(.3508)"/><path d="M5.633 16.074c7.175 2.242 7.85 7.03 12.777 1.754L10.5 9.132c-2.22 1.93-3.587 4.327-4.867 6.942z" opacity=".8" fill="url(#t)" transform="rotate(180 8.205 8.225) scale(.3508)"/><path d="M7.155 13.193c-1.183 1.752-1.907 3.637-2.525 5.644l11.34 2.976a8.19 8.19 0 0 1 .967-2.22L17 19.5l-9.845-6.307z" opacity=".8" fill="url(#u)" transform="rotate(180 8.205 8.225) scale(.3508)"/><path d="M8 11.5A3.49 3.49 0 0 1 4.5 8c0-1.94 1.56-3.5 3.5-3.5s3.5 1.56 3.5 3.5-1.56 3.5-3.5 3.5z" opacity=".4" fill="none" stroke="url(#v)"/><path d="M14.5 8a6.5 6.5 0 1 1-13 0 6.5 6.5 0 0 1 13 0z" opacity=".55" color="#000" fill="none" stroke="url(#w)" stroke-linecap="round" stroke-linejoin="round" overflow="visible"/></svg>
